X: 349
T: SHE'S A DEAR MAID TO ME
T: Is cailm mirneach domsa i
B: O'Neill's 349
M: 3/4
L: 1/8
Z: 1999 by John Chambers <jc@trillian.mit.edu>
N: "Slow"
N: "Collected by F.O'Neill"
K:Dm
A=B/^c/ \
|d2 A2 de|dc AG FG|FTE4 D2|D4 de \
|f2 ed d/e/f|e2 dc ed|c4 ~BA|A4 de|
|f2 f/g/a gf|e2 e/f/g fe|fe dc AG|G4 AB \
|cB A2 fe|dc AG FG|TE4 D2|HD4||
